X: 154
T: Yuanzou gaofei  gebuxiage ni
L: 1/8
M: 2/4
K: G
A FE2 [I:setbarnb 1]| 
e> e B e | 
B e A E | 
G4 | 
B2e2 | 
G E d B | 
A B/ d/ F E | 
D4 |]

@@@ Tune index: 9028
